X:6
T:Dingle Regatta
Z: id:dc-slide-9
M:6/8
L:1/8
K:G Major
d^cd e2d|BAB d2B|ABA AGA|B2A G3|!
d^cd e2d|BAB d2B|ABA B2A|G3 G3:|!
d3 def|g3 gfg|a3 aga|b2a gfe|!
d3 def|g3 gab|a2g f2e|def g3:|!
g3 d3|B3 G3|FAF DEF|GAB def|!
g3 d3|B3 G3|FAF DEF|G3 G3:|!

